build/svg/cmd/32/beziersymmetric.svg

<?xml version="1.0" encoding="UTF-8" standalone="no"?>
<svg
   xmlns:dc="http://purl.org/dc/elements/1.1/"
   xmlns:cc="http://creativecommons.org/ns#"
   xmlns:rdf="http://www.w3.org/1999/02/22-rdf-syntax-ns#"
   xmlns:svg="http://www.w3.org/2000/svg"
   xmlns="http://www.w3.org/2000/svg"
   xmlns:sodipodi="http://sodipodi.sourceforge.net/DTD/sodipodi-0.dtd"
   xmlns:inkscape="http://www.inkscape.org/namespaces/inkscape"
   viewBox="0 0 32 32"
   version="1.1"
   id="svg6"
   sodipodi:docname="beziersymmetric.svg"
   inkscape:version="0.92.5 (2060ec1f9f, 2020-04-08)"
   inkscape:export-filename="/home/jupiter007/Libreoffice yaru theme fullcolor/build/cmd/32/beziersymmetric.png"
   inkscape:export-xdpi="95"
   inkscape:export-ydpi="95">
  <metadata
     id="metadata12">
    <rdf:RDF>
      <cc:Work
         rdf:about="">
        <dc:format>image/svg+xml</dc:format>
        <dc:type
           rdf:resource="http://purl.org/dc/dcmitype/StillImage" />
      </cc:Work>
    </rdf:RDF>
  </metadata>
  <defs
     id="defs10" />
  <sodipodi:namedview
     pagecolor="#ffffff"
     bordercolor="#666666"
     borderopacity="1"
     objecttolerance="10"
     gridtolerance="10"
     guidetolerance="10"
     inkscape:pageopacity="0"
     inkscape:pageshadow="2"
     inkscape:window-width="1920"
     inkscape:window-height="1011"
     id="namedview8"
     showgrid="true"
     inkscape:zoom="14.75"
     inkscape:cx="7.4525253"
     inkscape:cy="17.816338"
     inkscape:window-x="1920"
     inkscape:window-y="32"
     inkscape:window-maximized="1"
     inkscape:current-layer="svg6">
    <inkscape:grid
       type="xygrid"
       id="grid832" />
  </sodipodi:namedview>
  <path
     d="M 13.500142,5.9941409 C 7.9627474,8.1565645 3.503079,17.120361 3.5001415,27.5 h 1 C 4.5066215,17.750632 8.5269643,9.2919313 13.500142,7.0761722 Z m 5,0.015625 v 1.0625 c 4.973921,2.2160934 8.994473,10.6769051 9,20.4277341 h 1 c -0.007,-10.373776 -4.465729,-19.3290369 -10,-21.4902341 z"
     id="path2"
     style="fill:#232629;stroke:#1463a5;stroke-opacity:1"
     inkscape:connector-curvature="0"
     sodipodi:nodetypes="cccccccccc" />
  <path
     sodipodi:nodetypes="cccccccccccccc"
     style="fill:#808080;fill-opacity:1"
     inkscape:connector-curvature="0"
     id="path853"
     d="M 29,4 V 8 H 25 V 7 H 18 V 5 h 7 V 4 Z m -1,1 h -2 v 2 h 2 z" />
  <path
     d="M 3,4 V 8 H 7 V 7 h 7 V 5 H 7 V 4 Z M 4,5 H 6 V 7 H 4 Z"
     id="path2-3"
     inkscape:connector-curvature="0"
     style="fill:#808080;fill-opacity:1"
     sodipodi:nodetypes="cccccccccccccc" />
  <rect
     y="13"
     x="3.0000002"
     height="6"
     width="6"
     id="rect832"
     style="opacity:0.7;vector-effect:none;fill:#000000;fill-opacity:1;stroke:none;stroke-width:1.5;stroke-linecap:round;stroke-linejoin:round;stroke-miterlimit:4;stroke-dasharray:none;stroke-dashoffset:0;stroke-opacity:1"
     transform="matrix(0,1,1,0,0,0)" />
  <path
     sodipodi:nodetypes="ccccc"
     inkscape:connector-curvature="0"
     id="path855"
     d="m 28,5 h -2 v 2 h 2 z"
     style="opacity:1;fill:#ffffff;fill-opacity:1;fill-rule:nonzero;stroke:none;stroke-width:0.5;stroke-linecap:round;stroke-linejoin:round;stroke-miterlimit:4;stroke-dasharray:none;stroke-opacity:1" />
  <rect
     y="14"
     x="4.0000005"
     height="4"
     width="4"
     id="rect834"
     style="opacity:1;vector-effect:none;fill:#aee3f8;fill-opacity:1;stroke:none;stroke-width:2;stroke-linecap:round;stroke-linejoin:round;stroke-miterlimit:4;stroke-dasharray:none;stroke-dashoffset:0;stroke-opacity:1"
     transform="matrix(0,1,1,0,0,0)" />
  <path
     style="opacity:1;fill:#ffffff;fill-opacity:1;fill-rule:nonzero;stroke:none;stroke-width:0.5;stroke-linecap:round;stroke-linejoin:round;stroke-miterlimit:4;stroke-dasharray:none;stroke-opacity:1"
     d="M 4,5 H 6 V 7 H 4 Z"
     id="rect836"
     inkscape:connector-curvature="0"
     sodipodi:nodetypes="ccccc" />
</svg>

<svg xmlns="http://www.w3.org/2000/svg" viewBox="0 0 32 32"><path d="M13.5 5.994C7.963 8.157 3.503 17.12 3.5 27.5h1c.007-9.75 4.027-18.208 9-20.424zm5 .016v1.062c4.974 2.216 8.995 10.677 9 20.428h1c-.007-10.374-4.466-19.329-10-21.49z" fill="#232629" stroke="#1463a5"/><path d="M29 4v4h-4V7h-7V5h7V4zm-1 1h-2v2h2zM3 4v4h4V7h7V5H7V4zm1 1h2v2H4z" fill="gray"/><path opacity=".7" d="M13 3v6h6V3z"/><path d="M28 5h-2v2h2z" fill="#fff"/><path fill="#aee3f8" d="M14 4v4h4V4z"/><path d="M4 5h2v2H4z" fill="#fff"/></svg>
